public/asset/favicon/favicon.svg

<svg xmlns="http://www.w3.org/2000/svg" width="1000" height="1000"><g clip-path="url(#a)"><path fill="#030712" d="M0 0h1000v1000H0z"/><svg xmlns="http://www.w3.org/2000/svg" xmlns:svgjs="http://svgjs.dev/svgjs" xmlns:xlink="http://www.w3.org/1999/xlink" width="512" height="512" transform="translate(200 200)scale(1.17188)"><svg xmlns="http://www.w3.org/2000/svg" width="512" height="512" fill="none" viewBox="0 0 512 512"><g clip-path="url(#b)"><g clip-path="url(#c)"><path fill="#fff" d="M185.029 436.133c-23.133-21.146-29.886-65.576-20.248-97.765 16.711 20.295 39.865 26.723 63.849 30.352 37.025 5.6 73.387 3.506 107.782-13.417 3.934-1.938 7.571-4.514 11.87-7.123 3.227 9.363 4.067 18.815 2.94 28.436-2.741 23.43-14.401 41.529-32.947 55.249-7.416 5.488-15.263 10.394-22.923 15.568-23.53 15.904-29.896 34.552-21.054 61.676.21.665.398 1.325.873 2.938-12.014-5.379-20.79-13.208-27.476-23.501-7.062-10.862-10.422-22.879-10.599-35.883-.089-6.327-.089-12.712-.94-18.95-2.077-15.209-9.217-22.019-22.668-22.411-13.804-.403-24.724 8.131-27.619 21.571-.222 1.03-.542 2.05-.863 3.248z"/><path fill="url(#d)" d="M185.029 436.133c-23.133-21.146-29.886-65.576-20.248-97.765 16.711 20.295 39.865 26.723 63.849 30.352 37.025 5.6 73.387 3.506 107.782-13.417 3.934-1.938 7.571-4.514 11.87-7.123 3.227 9.363 4.067 18.815 2.94 28.436-2.741 23.43-14.401 41.529-32.947 55.249-7.416 5.488-15.263 10.394-22.923 15.568-23.53 15.904-29.896 34.552-21.054 61.676.21.665.398 1.325.873 2.938-12.014-5.379-20.79-13.208-27.476-23.501-7.062-10.862-10.422-22.879-10.599-35.883-.089-6.327-.089-12.712-.94-18.95-2.077-15.209-9.217-22.019-22.668-22.411-13.804-.403-24.724 8.131-27.619 21.571-.222 1.03-.542 2.05-.863 3.248z"/><path fill="#fff" d="M53 333.006s68.499-33.369 137.189-33.369l51.79-160.282c1.939-7.751 7.601-13.019 13.992-13.019s12.053 5.268 13.992 13.019l51.79 160.282c81.354 0 137.189 33.369 137.189 33.369S342.591 16.043 342.364 15.406C339.025 6.037 333.387 0 325.787 0H186.168c-7.601 0-13.011 6.035-16.577 15.407C169.339 16.03 53 333.006 53 333.006"/></g></g><defs><clipPath id="b"><path fill="#fff" d="M0 0h512v512H0z"/></clipPath><clipPath id="c"><path fill="#fff" d="M53 0h406.766v512.047H53z"/></clipPath><clipPath id="a"><rect width="1000" height="1000" rx="350" ry="350"/></clipPath><linearGradient id="d" x1="160.531" x2="383.893" y1="512.047" y2="406.512" gradientUnits="userSpaceOnUse"><stop stop-color="#d83333"/><stop offset="1" stop-color="#f041ff"/></linearGradient></defs></svg></svg></g></svg>

<svg xmlns="http://www.w3.org/2000/svg" version="1.1" xmlns:xlink="http://www.w3.org/1999/xlink" xmlns:svgjs="http://svgjs.dev/svgjs" width="1000" height="1000"><g clip-path="url(#SvgjsClipPath1117)"><rect width="1000" height="1000" fill="#030712"></rect><g transform="matrix(1.171875,0,0,1.171875,200,200)"><svg xmlns="http://www.w3.org/2000/svg" version="1.1" xmlns:xlink="http://www.w3.org/1999/xlink" xmlns:svgjs="http://svgjs.dev/svgjs" width="512" height="512"><svg width="512" height="512" viewBox="0 0 512 512" fill="none" xmlns="http://www.w3.org/2000/svg">
<g clip-path="url(#clip0_5505_1371)">
<g clip-path="url(#clip1_5505_1371)">
<path d="M185.029 436.133C161.896 414.987 155.143 370.557 164.781 338.368C181.492 358.663 204.646 365.091 228.63 368.72C265.655 374.32 302.017 372.226 336.412 355.303C340.346 353.365 343.983 350.789 348.282 348.18C351.509 357.543 352.349 366.995 351.222 376.616C348.481 400.046 336.821 418.145 318.275 431.865C310.859 437.353 303.012 442.259 295.352 447.433C271.822 463.337 265.456 481.985 274.298 509.109C274.508 509.774 274.696 510.434 275.171 512.047C263.157 506.668 254.381 498.839 247.695 488.546C240.633 477.684 237.273 465.667 237.096 452.663C237.007 446.336 237.007 439.951 236.156 433.713C234.079 418.504 226.939 411.694 213.488 411.302C199.684 410.899 188.764 419.433 185.869 432.873C185.647 433.903 185.327 434.923 185.006 436.121L185.029 436.133Z" fill="white"></path>
<path d="M185.029 436.133C161.896 414.987 155.143 370.557 164.781 338.368C181.492 358.663 204.646 365.091 228.63 368.72C265.655 374.32 302.017 372.226 336.412 355.303C340.346 353.365 343.983 350.789 348.282 348.18C351.509 357.543 352.349 366.995 351.222 376.616C348.481 400.046 336.821 418.145 318.275 431.865C310.859 437.353 303.012 442.259 295.352 447.433C271.822 463.337 265.456 481.985 274.298 509.109C274.508 509.774 274.696 510.434 275.171 512.047C263.157 506.668 254.381 498.839 247.695 488.546C240.633 477.684 237.273 465.667 237.096 452.663C237.007 446.336 237.007 439.951 236.156 433.713C234.079 418.504 226.939 411.694 213.488 411.302C199.684 410.899 188.764 419.433 185.869 432.873C185.647 433.903 185.327 434.923 185.006 436.121L185.029 436.133Z" fill="url(#paint0_linear_5505_1371)"></path>
<path d="M53 333.006C53 333.006 121.499 299.637 190.189 299.637L241.979 139.355C243.918 131.604 249.58 126.336 255.971 126.336C262.363 126.336 268.024 131.604 269.963 139.355L321.753 299.637C403.107 299.637 458.942 333.006 458.942 333.006C458.942 333.006 342.591 16.0425 342.364 15.4066C339.025 6.03545 333.387 0 325.787 0H186.168C178.567 0 173.157 6.03545 169.591 15.4066C169.339 16.0306 53 333.006 53 333.006Z" fill="white"></path>
</g>
</g>
<defs>
<linearGradient id="paint0_linear_5505_1371" x1="160.531" y1="512.047" x2="383.893" y2="406.512" gradientUnits="userSpaceOnUse">
<stop stop-color="#D83333"></stop>
<stop offset="1" stop-color="#F041FF"></stop>
</linearGradient>
<clipPath id="clip0_5505_1371">
<rect width="512" height="512" fill="white"></rect>
</clipPath>
<clipPath id="clip1_5505_1371">
<rect width="406.766" height="512.047" fill="white" transform="translate(53)"></rect>
</clipPath>
<clipPath id="SvgjsClipPath1117"><rect width="1000" height="1000" x="0" y="0" rx="350" ry="350"></rect></clipPath></defs>
</svg></svg></g></g></svg>
